img/svg/twitter.svg

<svg fill="none" height="34" viewBox="0 0 34 34" width="34" xmlns="http://www.w3.org/2000/svg"><path d="m25.6386 11.6559c-.6112.2809-1.2693.472-1.9601.5582.7052-.4383 1.244-1.1314 1.5008-1.9556-.6582.4046-1.3887.7006-2.1662.8579-.6256-.6856-1.5116-1.1164-2.4952-1.1164-1.8841 0-3.4138 1.5809-3.4138 3.5365 0 .2773.0289.547.0868.8055-2.8352-.1461-5.3521-1.5547-7.0337-3.6939-.29291.5208-.46287 1.1277-.46287 1.7758 0 1.225.60387 2.3077 1.51887 2.9408-.5606-.0187-1.0849-.176-1.54419-.442v.0449c0 1.7121 1.17529 3.1432 2.73749 3.4654-.2856.0824-.5894.1236-.9004.1236-.2206 0-.434-.0225-.6437-.0637.4339 1.4049 1.696 2.4276 3.1896 2.4538-1.1681.9479-2.6399 1.5136-4.23833 1.5136-.27484 0-.54606-.015-.81367-.0487 1.5116 1.004 3.3053 1.5884 5.2328 1.5884 6.2779 0 9.7097-5.3872 9.7097-10.0589 0-.1536-.0036-.3072-.0108-.457.669-.4945 1.2476-1.1164 1.7069-1.8282z" fill="#fff"/><circle cx="17" cy="17" r="16.5" stroke="#fff"/></svg>

<svg width="34" height="34" viewBox="0 0 34 34" fill="none" xmlns="http://www.w3.org/2000/svg">
<path d="M25.6386 11.6559C25.0274 11.9368 24.3693 12.1279 23.6785 12.2141C24.3837 11.7758 24.9225 11.0827 25.1793 10.2585C24.5211 10.6631 23.7906 10.9591 23.0131 11.1164C22.3875 10.4308 21.5015 10 20.5179 10C18.6338 10 17.1041 11.5809 17.1041 13.5365C17.1041 13.8138 17.133 14.0835 17.1909 14.342C14.3557 14.1959 11.8388 12.7873 10.1572 10.6481C9.86429 11.1689 9.69433 11.7758 9.69433 12.4239C9.69433 13.6489 10.2982 14.7316 11.2132 15.3647C10.6526 15.346 10.1283 15.1887 9.66901 14.9227C9.66901 14.9376 9.66901 14.9526 9.66901 14.9676C9.66901 16.6797 10.8443 18.1108 12.4065 18.433C12.1209 18.5154 11.8171 18.5566 11.5061 18.5566C11.2855 18.5566 11.0721 18.5341 10.8624 18.4929C11.2963 19.8978 12.5584 20.9205 14.052 20.9467C12.8839 21.8946 11.4121 22.4603 9.81367 22.4603C9.53883 22.4603 9.26761 22.4453 9 22.4116C10.5116 23.4156 12.3053 24 14.2328 24C20.5107 24 23.9425 18.6128 23.9425 13.9411C23.9425 13.7875 23.9389 13.6339 23.9317 13.4841C24.6007 12.9896 25.1793 12.3677 25.6386 11.6559Z" fill="white"/>
<circle cx="17" cy="17" r="16.5" stroke="white"/>
</svg>
